X:239
T:Tico Tico
C:Zequinha Abreu
R:reel
M:4/4
L:1/8
K:Bmin
F=F^F | G2FB- BF=F^F | G2Fc- cF=F^F | GFec ^AFE^D | D3^A B^A=A^G |
G2Be- eGBe | F2Bd- dFB^B | c3d cB^AB | c3c- cF=F^F |
G2FB- BF=F^F | G2Fc- cF=F^F | GFec ^AFE^D | D3^A B^A=A^G |
GBeG BeGB | FBdF Bd(3F^Ac |f2fg fedc | B3 B- ::
K:D
BFG^G | A2^GA- A^GA^A | B2G2- GFG^G | ACEA CEA^A| B2F2- FffF |
dFdF cFcF | B2G2- G=C^CE |B2GB- BFG^G | A2D2- D=F^FG |
A2^GA- A^GA^A | B2G2- GFG^G | ACEA CEA^A|BF(3FFF FAdc|
B^ABc edcd | fg^ga ba=gf | edcB AGFE | D3 D- ::
K:B
DBdf | bBdf aBdf | gBdf gfdB | bBdf aBdf | gGce gecG |
bGce aGce | gGce gecG | bGce aGce | gBdf gfdB |
bBdf aBdf | gBdf gfdB | g3=a gfed | gfed cB^A=A |
G=A^AB cBAB | de=f^f gfed | cBAG FEDC | B,3 B, |]
